src/assets/svg/lamp-aan.svg

<svg height="90" viewBox="0 0 90 90" width="90" xmlns="http://www.w3.org/2000/svg"><g fill="none" fill-rule="evenodd"><path d="m52 66.0296v5.5c0 3.866-3.134 7-7 7s-7-3.134-7-7v-5.5" fill="#a6acb2"/><path d="m52 66.0296v5.5c0 3.866-3.134 7-7 7s-7-3.134-7-7v-5.5" stroke="#232e38" stroke-linecap="round" stroke-linejoin="round" stroke-width="2"/><path d="m49.6667 66.5296h-9.333c-2.394 0-4.334-1.94-4.334-4.333v-3.667h18v3.667c0 2.393-1.94 4.333-4.333 4.333" fill="#a6acb2"/><path d="m49.6667 66.5296h-9.333c-2.394 0-4.334-1.94-4.334-4.333v-3.667h18v3.667c0 2.393-1.94 4.333-4.333 4.333z" stroke="#232e38" stroke-linecap="round" stroke-linejoin="round" stroke-width="2"/><path d="m63 38.5296c0-10.618-9.193-19.088-20.053-17.886-8.476.938-15.228 7.944-15.891 16.446-.473 6.072 2.076 11.559 6.296 15.143 1.73 1.47 2.648 3.684 2.648 5.954v.343h18v-.504c0-2.197.909-4.328 2.59-5.744 3.917-3.298 6.41-8.23 6.41-13.752" fill="#fc0"/><g stroke-linecap="round" stroke-linejoin="round" stroke-width="2"><path d="m63 38.5296c0-10.618-9.193-19.088-20.053-17.886-8.476.938-15.228 7.944-15.891 16.446-.473 6.072 2.076 11.559 6.296 15.143 1.73 1.47 2.648 3.684 2.648 5.954v.343h18v-.504c0-2.197.909-4.328 2.59-5.744 3.917-3.298 6.41-8.23 6.41-13.752z" stroke="#383128"/><path d="m38.9 74.5296h12.3" stroke="#232e38"/><path d="m38.1 70.5296h13.9" stroke="#232e38"/><path d="m56.7 44.5296c-1.45 3.038-3.605 4.089-4.867 5.975" stroke="#fff"/><path d="m34.3289 30.119c2.504-3.249 6.435-5.342 10.854-5.342" stroke="#fff"/><path d="m31.6076 36.647c.154-1.156.452-2.266.876-3.312" stroke="#fff"/><path d="m30.2375 56.5296-1.238.685" stroke="#fff"/><path d="m28.3593 52.5296-3.359 1.102" stroke="#fff"/><path d="m25 48.5296-1.414-.039" stroke="#fff"/><path d="m24.5342 44.6271-3.534-.098" stroke="#fff"/><path d="m23.4137 40.5686-1.414-.039" stroke="#fff"/><path d="m23.5342 36.5296-3.534-.098" stroke="#fff"/><path d="m25.0404 29.334-3.04-1.804" stroke="#fff"/><path d="m30 23.0434-2.486-2.514" stroke="#fff"/><path d="m37 18.6884-1.588-3.159" stroke="#fff"/><path d="m44.1357 16.5355.018-3.535" stroke="#fff"/><path d="m63.9596 28.5296 3.04-1.804" stroke="#fff"/><path d="m58.3586 21.9599 2.323-2.665" stroke="#fff"/><path d="m51.1748 17.5575 1.825-3.028" stroke="#fff"/><path d="m60.5589 56.7346-1.279-.603" stroke="#fff"/><path d="m65.1269 53.5296-3.127-1.65" stroke="#fff"/><path d="m66 48.5686-1.414-.039" stroke="#fff"/><path d="m69 44.5296-3.534-.098" stroke="#fff"/><path d="m68 40.5296-1.414-.039" stroke="#fff"/><path d="m67.3442 32.09-1.344.44" stroke="#fff"/><path d="m62.9737 23.6147-1.063.933" stroke="#fff"/><path d="m55.9109 18.4444-.885 1.103" stroke="#fff"/><path d="m48.0918 15.1183-.092 1.411" stroke="#fff"/><path d="m22.6558 32.09 1.344.44" stroke="#fff"/><path d="m26.1294 24.6546 1.085.907" stroke="#fff"/><path d="m32.1358 19.4979.814 1.157" stroke="#fff"/><path d="m40.8574 15.5296.143 1.407" stroke="#fff"/><path d="m70.5342 36.6271-3.534-.098" stroke="#fff"/></g></g></svg>

<?xml version="1.0" encoding="UTF-8" standalone="no"?>
<svg width="90px" height="90px" viewBox="0 0 90 90" version="1.1" xmlns="http://www.w3.org/2000/svg" xmlns:xlink="http://www.w3.org/1999/xlink" xmlns:sketch="http://www.bohemiancoding.com/sketch/ns">
    <!-- Generator: Sketch 3.5.1 (25234) - http://www.bohemiancoding.com/sketch -->
    <title>lamp-aan</title>
    <desc>Created with Sketch.</desc>
    <defs></defs>
    <g id="Page-1" stroke="none" stroke-width="1" fill="none" fill-rule="evenodd" sketch:type="MSPage">
        <g id="lamp-aan" sketch:type="MSArtboardGroup">
            <g id="Group-6" sketch:type="MSLayerGroup">
                <path d="M52,66.0296 L52,71.5296 C52,75.3956 48.866,78.5296 45,78.5296 C41.134,78.5296 38,75.3956 38,71.5296 L38,66.0296" id="Fill-3" fill="#A6ACB2" sketch:type="MSShapeGroup"></path>
                <path d="M52,66.0296 L52,71.5296 C52,75.3956 48.866,78.5296 45,78.5296 C41.134,78.5296 38,75.3956 38,71.5296 L38,66.0296" id="Stroke-5" stroke="#232E38" stroke-width="2" stroke-linecap="round" stroke-linejoin="round" sketch:type="MSShapeGroup"></path>
            </g>
            <path d="M49.6667,66.5296 L40.3337,66.5296 C37.9397,66.5296 35.9997,64.5896 35.9997,62.1966 L35.9997,58.5296 L53.9997,58.5296 L53.9997,62.1966 C53.9997,64.5896 52.0597,66.5296 49.6667,66.5296" id="Fill-7" fill="#A6ACB2" sketch:type="MSShapeGroup"></path>
            <path d="M49.6667,66.5296 L40.3337,66.5296 C37.9397,66.5296 35.9997,64.5896 35.9997,62.1966 L35.9997,58.5296 L53.9997,58.5296 L53.9997,62.1966 C53.9997,64.5896 52.0597,66.5296 49.6667,66.5296 L49.6667,66.5296 Z" id="Stroke-9" stroke="#232E38" stroke-width="2" stroke-linecap="round" stroke-linejoin="round" sketch:type="MSShapeGroup"></path>
            <path d="M63,38.5296 C63,27.9116 53.807,19.4416 42.947,20.6436 C34.471,21.5816 27.719,28.5876 27.056,37.0896 C26.583,43.1616 29.132,48.6486 33.352,52.2326 C35.082,53.7026 36,55.9166 36,58.1866 L36,58.5296 L54,58.5296 L54,58.0256 C54,55.8286 54.909,53.6976 56.59,52.2816 C60.507,48.9836 63,44.0516 63,38.5296" id="Fill-11" fill="#FFCC00" sketch:type="MSShapeGroup"></path>
            <path d="M63,38.5296 C63,27.9116 53.807,19.4416 42.947,20.6436 C34.471,21.5816 27.719,28.5876 27.056,37.0896 C26.583,43.1616 29.132,48.6486 33.352,52.2326 C35.082,53.7026 36,55.9166 36,58.1866 L36,58.5296 L54,58.5296 L54,58.0256 C54,55.8286 54.909,53.6976 56.59,52.2816 C60.507,48.9836 63,44.0516 63,38.5296 L63,38.5296 Z" id="Stroke-13" stroke="#383128" stroke-width="2" stroke-linecap="round" stroke-linejoin="round" sketch:type="MSShapeGroup"></path>
            <path d="M38.9,74.5296 L51.2,74.5296" id="Stroke-15" stroke="#232E38" stroke-width="2" stroke-linecap="round" stroke-linejoin="round" sketch:type="MSShapeGroup"></path>
            <path d="M38.1,70.5296 L52,70.5296" id="Stroke-17" stroke="#232E38" stroke-width="2" stroke-linecap="round" stroke-linejoin="round" sketch:type="MSShapeGroup"></path>
            <path d="M56.7,44.5296 C55.25,47.5676 53.095,48.6186 51.833,50.5046" id="Stroke-19" stroke="#FFFFFF" stroke-width="2" stroke-linecap="round" stroke-linejoin="round" sketch:type="MSShapeGroup"></path>
            <path d="M34.3289,30.119 C36.8329,26.87 40.7639,24.777 45.1829,24.777" id="Stroke-21" stroke="#FFFFFF" stroke-width="2" stroke-linecap="round" stroke-linejoin="round" sketch:type="MSShapeGroup"></path>
            <path d="M31.6076,36.647 C31.7616,35.491 32.0596,34.381 32.4836,33.335" id="Stroke-23" stroke="#FFFFFF" stroke-width="2" stroke-linecap="round" stroke-linejoin="round" sketch:type="MSShapeGroup"></path>
            <path d="M30.2375,56.5296 L28.9995,57.2146" id="Stroke-25" stroke="#FFFFFF" stroke-width="2" stroke-linecap="round" stroke-linejoin="round" sketch:type="MSShapeGroup"></path>
            <path d="M28.3593,52.5296 L25.0003,53.6316" id="Stroke-27" stroke="#FFFFFF" stroke-width="2" stroke-linecap="round" stroke-linejoin="round" sketch:type="MSShapeGroup"></path>
            <path d="M25,48.5296 L23.586,48.4906" id="Stroke-29" stroke="#FFFFFF" stroke-width="2" stroke-linecap="round" stroke-linejoin="round" sketch:type="MSShapeGroup"></path>
            <path d="M24.5342,44.6271 L21.0002,44.5291" id="Stroke-31" stroke="#FFFFFF" stroke-width="2" stroke-linecap="round" stroke-linejoin="round" sketch:type="MSShapeGroup"></path>
            <path d="M23.4137,40.5686 L21.9997,40.5296" id="Stroke-33" stroke="#FFFFFF" stroke-width="2" stroke-linecap="round" stroke-linejoin="round" sketch:type="MSShapeGroup"></path>
            <path d="M23.5342,36.5296 L20.0002,36.4316" id="Stroke-35" stroke="#FFFFFF" stroke-width="2" stroke-linecap="round" stroke-linejoin="round" sketch:type="MSShapeGroup"></path>
            <path d="M25.0404,29.334 L22.0004,27.53" id="Stroke-37" stroke="#FFFFFF" stroke-width="2" stroke-linecap="round" stroke-linejoin="round" sketch:type="MSShapeGroup"></path>
            <path d="M30,23.0434 L27.514,20.5294" id="Stroke-39" stroke="#FFFFFF" stroke-width="2" stroke-linecap="round" stroke-linejoin="round" sketch:type="MSShapeGroup"></path>
            <path d="M37,18.6884 L35.412,15.5294" id="Stroke-41" stroke="#FFFFFF" stroke-width="2" stroke-linecap="round" stroke-linejoin="round" sketch:type="MSShapeGroup"></path>
            <path d="M44.1357,16.5355 L44.1537,13.0005" id="Stroke-43" stroke="#FFFFFF" stroke-width="2" stroke-linecap="round" stroke-linejoin="round" sketch:type="MSShapeGroup"></path>
            <path d="M63.9596,28.5296 L66.9996,26.7256" id="Stroke-45" stroke="#FFFFFF" stroke-width="2" stroke-linecap="round" stroke-linejoin="round" sketch:type="MSShapeGroup"></path>
            <path d="M58.3586,21.9599 L60.6816,19.2949" id="Stroke-47" stroke="#FFFFFF" stroke-width="2" stroke-linecap="round" stroke-linejoin="round" sketch:type="MSShapeGroup"></path>
            <path d="M51.1748,17.5575 L52.9998,14.5295" id="Stroke-49" stroke="#FFFFFF" stroke-width="2" stroke-linecap="round" stroke-linejoin="round" sketch:type="MSShapeGroup"></path>
            <path d="M60.5589,56.7346 L59.2799,56.1316" id="Stroke-51" stroke="#FFFFFF" stroke-width="2" stroke-linecap="round" stroke-linejoin="round" sketch:type="MSShapeGroup"></path>
            <path d="M65.1269,53.5296 L61.9999,51.8796" id="Stroke-53" stroke="#FFFFFF" stroke-width="2" stroke-linecap="round" stroke-linejoin="round" sketch:type="MSShapeGroup"></path>
            <path d="M66,48.5686 L64.586,48.5296" id="Stroke-55" stroke="#FFFFFF" stroke-width="2" stroke-linecap="round" stroke-linejoin="round" sketch:type="MSShapeGroup"></path>
            <path d="M69,44.5296 L65.466,44.4316" id="Stroke-57" stroke="#FFFFFF" stroke-width="2" stroke-linecap="round" stroke-linejoin="round" sketch:type="MSShapeGroup"></path>
            <path d="M68,40.5296 L66.586,40.4906" id="Stroke-59" stroke="#FFFFFF" stroke-width="2" stroke-linecap="round" stroke-linejoin="round" sketch:type="MSShapeGroup"></path>
            <path d="M67.3442,32.09 L66.0002,32.53" id="Stroke-61" stroke="#FFFFFF" stroke-width="2" stroke-linecap="round" stroke-linejoin="round" sketch:type="MSShapeGroup"></path>
            <path d="M62.9737,23.6147 L61.9107,24.5477" id="Stroke-63" stroke="#FFFFFF" stroke-width="2" stroke-linecap="round" stroke-linejoin="round" sketch:type="MSShapeGroup"></path>
            <path d="M55.9109,18.4444 L55.0259,19.5474" id="Stroke-65" stroke="#FFFFFF" stroke-width="2" stroke-linecap="round" stroke-linejoin="round" sketch:type="MSShapeGroup"></path>
            <path d="M48.0918,15.1183 L47.9998,16.5293" id="Stroke-67" stroke="#FFFFFF" stroke-width="2" stroke-linecap="round" stroke-linejoin="round" sketch:type="MSShapeGroup"></path>
            <path d="M22.6558,32.09 L23.9998,32.53" id="Stroke-69" stroke="#FFFFFF" stroke-width="2" stroke-linecap="round" stroke-linejoin="round" sketch:type="MSShapeGroup"></path>
            <path d="M26.1294,24.6546 L27.2144,25.5616" id="Stroke-71" stroke="#FFFFFF" stroke-width="2" stroke-linecap="round" stroke-linejoin="round" sketch:type="MSShapeGroup"></path>
            <path d="M32.1358,19.4979 L32.9498,20.6549" id="Stroke-73" stroke="#FFFFFF" stroke-width="2" stroke-linecap="round" stroke-linejoin="round" sketch:type="MSShapeGroup"></path>
            <path d="M40.8574,15.5296 L41.0004,16.9366" id="Stroke-75" stroke="#FFFFFF" stroke-width="2" stroke-linecap="round" stroke-linejoin="round" sketch:type="MSShapeGroup"></path>
            <path d="M70.5342,36.6271 L67.0002,36.5291" id="Stroke-77" stroke="#FFFFFF" stroke-width="2" stroke-linecap="round" stroke-linejoin="round" sketch:type="MSShapeGroup"></path>
        </g>
    </g>
</svg>
